source/images/icons/icon-editorial/enveloppe.svg

<?xml version="1.0" encoding="UTF-8"?>
<svg width="80px" height="80px" viewBox="0 0 80 80" version="1.1" xmlns="http://www.w3.org/2000/svg" xmlns:xlink="http://www.w3.org/1999/xlink">
    <!-- Generator: Sketch 55.2 (78181) - https://sketchapp.com -->
    <title>Illustrative Icons/Enveloppe</title>
    <desc>Created with Sketch.</desc>
    <g id="Illustrative-Icons/Enveloppe" stroke="none" stroke-width="1" fill="none" fill-rule="evenodd">
        <path d="M68.7823342,17 L10.7440008,17 C8.89400079,17.03 7.42233412,18.2933333 7.07733412,20.145 C6.70343563,22.0130002 7.71435315,23.8821118 9.48233412,24.5916667 L39.8156675,36.8766667 C40.215087,37.0374885 40.661248,37.0374885 41.0606675,36.8766667 L66.0606675,26.8766667 C66.9153282,26.5347104 67.3309572,25.5646607 66.9890009,24.71 C66.6470446,23.8553394 65.6769948,23.4397104 64.8223342,23.7816667 L40.4490008,33.5366667 L10.7306675,21.5 C10.4375572,21.37624 10.2794013,21.0563822 10.3590008,20.7483333 C10.4340008,20.3383333 10.6923341,20.335 10.8006675,20.3316667 L68.7823342,20.3316667 C69.7028088,20.3316667 70.4490009,21.0778588 70.4490009,21.9983333 L70.4490009,58.6666667 C70.4490009,59.5871413 69.7028088,60.3333334 68.7823342,60.3333334 L12.1156675,60.3333334 C11.1388843,60.331499 10.3475018,59.5401166 10.3456675,58.5633334 L10.3456675,35.3333334 C10.3456675,34.4128588 9.59947537,33.6666667 8.67900079,33.6666667 C7.75852621,33.6666667 7.01233412,34.4128588 7.01233412,35.3333334 L7.01233412,58.5633334 C7.01600684,61.3803039 9.29869698,63.662994 12.1156675,63.6666667 L68.7823342,63.6666667 C71.543758,63.6666667 73.7823342,61.4280905 73.7823342,58.6666667 L73.7823342,22 C73.7823342,19.2385763 71.543758,17 68.7823342,17 Z M8.78233412,30.3333334 C9.70280871,30.3333334 10.4490008,29.5871413 10.4490008,28.6666667 C10.4490008,27.7461921 9.70280871,27 8.78233412,27 C7.86185954,27 7.11566745,27.7461921 7.11566745,28.6666667 C7.11566745,29.5871413 7.86185954,30.3333334 8.78233412,30.3333334 Z" id="Shape-color" fill="#ADB5BD"></path>
    </g>
</svg>

<svg width="80" height="80">
    <title>
        Illustrative Icons/Enveloppe
    </title>
    <path d="M68.782 17H10.744c-1.85.03-3.322 1.293-3.667 3.145a3.955 3.955 0 0 0 2.405 4.447l30.334 12.285c.4.16.845.16 1.245 0l25-10a1.667 1.667 0 1 0-1.239-3.095L40.45 33.537 10.731 21.5a.642.642 0 0 1-.372-.752c.075-.41.333-.413.442-.416h57.981c.92 0 1.667.746 1.667 1.666v36.669c0 .92-.746 1.666-1.667 1.666H12.116a1.773 1.773 0 0 1-1.77-1.77v-23.23a1.667 1.667 0 0 0-3.334 0v23.23a5.11 5.11 0 0 0 5.104 5.104h56.666a5 5 0 0 0 5-5V22a5 5 0 0 0-5-5zm-60 13.333a1.667 1.667 0 1 0 0-3.333 1.667 1.667 0 0 0 0 3.333z" fill="#ADB5BD" fill-rule="evenodd"/>
</svg>
